docs/.gitbook/assets/icon-gift-16@dark.svg

<svg width="32" height="32" viewBox="0 0 16 16" fill="none" xmlns="http://www.w3.org/2000/svg">
<rect x="0" y="0" width="16" height="16" fill="#181c1f"/>
<path fill-rule="evenodd" clip-rule="evenodd" d="M3 3.75C3 2.23122 4.23122 1 5.75 1H5.875C6.71686 1 7.4742 1.36184 8 1.93848C8.5258 1.36184 9.28314 1 10.125 1H10.25C11.7688 1 13 2.23122 13 3.75C13 4.20011 12.8919 4.62497 12.7001 5H13.25H14.25C14.6642 5 15 5.33579 15 5.75C15 6.16421 14.6642 6.5 14.25 6.5H14V12.25C14 13.7688 12.7688 15 11.25 15H8H4.75C3.23122 15 2 13.7688 2 12.25V6.5H1.75C1.33579 6.5 1 6.16421 1 5.75C1 5.33579 1.33579 5 1.75 5H2.75H3.29985C3.10814 4.62497 3 4.20011 3 3.75ZM5.75 5H7.25V3.875C7.25 3.11561 6.63439 2.5 5.875 2.5H5.75C5.05964 2.5 4.5 3.05964 4.5 3.75C4.5 4.44036 5.05964 5 5.75 5ZM8.75 3.875V5H10.25C10.9404 5 11.5 4.44036 11.5 3.75C11.5 3.05964 10.9404 2.5 10.25 2.5H10.125C9.36561 2.5 8.75 3.11561 8.75 3.875ZM7.25 6.5H5.75H3.5V12.25C3.5 12.9404 4.05964 13.5 4.75 13.5H7.25V6.5ZM8.75 13.5V6.5H10.25H12.5V12.25C12.5 12.9404 11.9404 13.5 11.25 13.5H8.75Z" fill="#fff"/>
</svg>

<svg xmlns="http://www.w3.org/2000/svg" width="32" height="32" fill="none" viewBox="0 0 16 16"><path fill="#181c1f" d="M0 0h16v16H0z"/><path fill="#fff" fill-rule="evenodd" d="M3 3.75A2.75 2.75 0 0 1 5.75 1h.125c.842 0 1.6.362 2.125.938A2.87 2.87 0 0 1 10.125 1h.125a2.75 2.75 0 0 1 2.45 4h1.55a.75.75 0 0 1 0 1.5H14v5.75A2.75 2.75 0 0 1 11.25 15h-6.5A2.75 2.75 0 0 1 2 12.25V6.5h-.25a.75.75 0 0 1 0-1.5H3.3c-.192-.375-.3-.8-.3-1.25M5.75 5h1.5V3.875c0-.76-.616-1.375-1.375-1.375H5.75a1.25 1.25 0 1 0 0 2.5m3-1.125V5h1.5a1.25 1.25 0 1 0 0-2.5h-.125c-.76 0-1.375.616-1.375 1.375M7.25 6.5H3.5v5.75c0 .69.56 1.25 1.25 1.25h2.5zm1.5 7v-7h3.75v5.75c0 .69-.56 1.25-1.25 1.25z" clip-rule="evenodd"/></svg>
